X:144
T:Route 66
C:
N:ed by Gregory J. Thomas
L:1/8
Q:1/4=175
M:4/4
K:F
F2 | F4 F3/2D2z/ | F4 F3/2F/ D2 | F8 | z4 z3/2C/ D3/2F/ | z7/1z/D/ | 
F2 F2 F2 D2 | F8 | z4 F2 F2 | A2 z4 F2 | A2 c2 A2 D3/2F/ | z8 | z4 z3/2C/ D2 | 
F2 z2 F2 D2 | F3D F2 F2 | z8 | z6 F3/2D/ | F3/2F/ z4 F3/2D/ | F3/2F/ z2 F2 D2 | 
F8 | z4 F2 F2 | A2 z4 F2 | A2 c2 A2 D2 | F8 | z4 z3/2F/ A2 | c2 B3/2A/ B2 c3/2c/ | 
z2 B_A B2 cF | Ac cc c2 dc | _ed cF z4 | c2 BA Bc z2 | Ac zA F2 D2 | C2 z6 | z8 | 
cc BA Bc z2 | cc BA Bc z2 | c2 c2 c2 c2 | c2 BA Bc z2 | F2 z2 F2 D2 | F7/2D/ F2 F2 | 
F8 | z6 FC | F2 z4 FD | z/F3/2 F2 F2 D2 | F8 | z4 F2 F2 | A2 z4 F2 | A2 c2 A2 D2 | 
F8 | z8 | zf zf fe fe | ff7/1 | _ag fd cd fg | ff7/1 | _ag fe fg2f | _ag fe fg2f | 
_ag fd fg zf | z4 zg/a/ za | a2 a2 _a/b/z b2 | b2 a/=b/z c'2 c'2 | zc zc d2 d2 | 
GF zF zD FD | FG Ac de fg | f_a gf2d cA | cd cA GF DF | GF DF zF _G/=G/F | _A=A cd Ac zG | 
cd _ef z=e fe | gf _af gf ae | gf zf zf gf | _ag z6 | z_a z2 g2 e2 | f2 f2 g2 g2 | 
_ag zg z2 eA | B/c/z cc cB AB | B/c/z cc cB AB | B/c/z cA BA BA | cA BA cA BA | 
cA BA cA BA | cA BA cA BA | c2 c2 cB AF | z2 [FC][FC] [FC]F FF | _AA AA AG zF | 
zG z_A GF D2 | z2 FG Ac de | fg zf ze cA | c2 c2 c2 ee | f_a2f ff zf | _ag fe cA GA | 
cd c3c dc | d2 c2 A2 G2 | GF zF FF G2 | _AG FD D2 B,G, | B,C _D=D F_G/=G/ _A=A | 
cd ef gf z_a | zg fd c2 c/d/z | d2 d2 c2 dc | GF zE zD CD | F8 | 


